X:113
T:The May Queen                                                                                     
R:Jig                                                                                               
O:England                                                                                           
M:6/8                                                                                               
A:Lancashire                                                                                        
B:Winder                                                                                            
K:G                                                                                                 
B/2c/2 |: d>ed dge| d>ed dba| g>fe dcB| c>Bc A2|                                                    
B/2c/2| d>ed dge| d>ed dba| d>fe def|1 g3 g2 B/2c/2 :|2 g3 g2 F/2G/2 ||                             
|: A>BA Add| B>GG gfe | dcB gdB | BAA A2 F/2G/2|                                                    
A>BA Add| BGG  gfe |fga ge^c| ded def|                                                              
gab agf | gfe dcB | cBc cde | G3 F2 g/2a/2 |                                                        
bag agf | gfe dcB | cBc edF |1 A3 G2 F/2G/2 :|2 A3 G2 B/2c/2 |>|
